icons/24x24_import_outline.svg

<svg xmlns="http://www.w3.org/2000/svg" width="24" height="24" viewBox="0 0 24 24">
  <path fill-rule="evenodd" d="M17,9 L17,7 L18,7 C19.6568542,7 21,8.34314575 21,10 L21,18 C21,19.6568542 19.6568542,21 18,21 L6,21 C4.34314575,21 3,19.6568542 3,18 L3,10 C3,8.34314575 4.34314575,7 6,7 L7,7 L7,9 L6,9 C5.44771525,9 5,9.44771525 5,10 L5,18 C5,18.5522847 5.44771525,19 6,19 L18,19 C18.5522847,19 19,18.5522847 19,18 L19,10 C19,9.44771525 18.5522847,9 18,9 L17,9 Z M13.0448155,11.0472731 L14.2163884,9.88954613 C14.6244142,9.48634246 15.2859548,9.48634246 15.6939806,9.88954613 C16.1020065,10.2927498 16.1020065,10.9464721 15.6939806,11.3496758 L12,15 L8.30601937,11.3496758 C7.89799354,10.9464721 7.89799354,10.2927498 8.30601937,9.88954613 C8.71404521,9.48634246 9.37558579,9.48634246 9.78361162,9.88954613 L10.9551845,11.0472731 L10.9551845,3.0324676 C10.9551845,2.46225149 11.4229643,2 12,2 C12.5770357,2 13.0448155,2.46225149 13.0448155,3.0324676 L13.0448155,11.0472731 Z"/>
</svg>

<svg width="24" height="24" fill="none" xmlns="http://www.w3.org/2000/svg"><path fill-rule="evenodd" clip-rule="evenodd" d="M17 9V7h1a3 3 0 0 1 3 3v8a3 3 0 0 1-3 3H6a3 3 0 0 1-3-3v-8a3 3 0 0 1 3-3h1v2H6a1 1 0 0 0-1 1v8a1 1 0 0 0 1 1h12a1 1 0 0 0 1-1v-8a1 1 0 0 0-1-1h-1Zm-3.955 2.047 1.171-1.157a1.054 1.054 0 0 1 1.478 0 1.024 1.024 0 0 1 0 1.46L12 15l-3.694-3.65a1.024 1.024 0 0 1 0-1.46 1.054 1.054 0 0 1 1.478 0l1.171 1.157V3.032C10.955 2.462 11.423 2 12 2s1.045.462 1.045 1.032v8.015Z" fill="#000"/></svg>
